X:492
T:The Clare Jig ( Mug of Brown Ale )
T:AKA The Mug of Brown Ale
M:6/8
L:1/8
K:G
gf|"Am"eAA fAA|gfg age|"G"dBA G3|BGB dBd|"Am"eAA fAA|gfg age|
"G"dBd gdB|"Am"ABA A2:|"Am"efg a3|aba age|"G"dBd g3|bag fed|"Am"efg a3|
aba age|"G"dBd gdB|"Am"ABA A2 z|efg a3|aba age|"G"dBd g3|gba ged|
"Am"efg a2 b|c'2 b age|"G"dBg dBG|"Am"[BE]AA A2||
